packages/icons/src/components/Logo/assets/light/jupyterhub.svg

<svg width="20" height="20" viewBox="0 0 20 20" fill="none" xmlns="http://www.w3.org/2000/svg">
<path fill-rule="evenodd" clip-rule="evenodd" d="M19.5894 6.89184C19.7746 6.97069 19.907 7.06923 19.9665 7.19226L19.9666 7.19246C20.027 7.31907 20.0028 7.45504 19.9149 7.59168C19.8277 7.72723 19.6752 7.86835 19.4677 8.01322C19.0521 8.30336 18.4035 8.61686 17.5731 8.9354C15.9116 9.57282 13.5126 10.234 10.7687 10.769C8.02465 11.3041 5.45437 11.6104 3.51703 11.6734C2.5486 11.7049 1.73673 11.6757 1.13983 11.5832C0.841506 11.537 0.595027 11.4748 0.408967 11.3954C0.224076 11.3166 0.0921376 11.218 0.0333698 11.0948C-0.0270376 10.9682 -0.00284564 10.8323 0.0850537 10.6956C0.172256 10.5601 0.324754 10.4189 0.532274 10.2741C0.947901 9.98393 1.59651 9.67043 2.42685 9.35189C4.08844 8.71447 6.48737 8.05332 9.23131 7.51826C11.9753 6.98319 14.5442 6.67685 16.4808 6.61385C17.4489 6.58236 18.2606 6.61161 18.8578 6.70404C19.1562 6.75025 19.4029 6.8125 19.5894 6.89184ZM16.4835 6.6976C14.5525 6.76042 11.9882 7.06605 9.24734 7.6005C6.50641 8.13497 4.11251 8.79499 2.45686 9.43012C1.62859 9.74787 0.987482 10.0585 0.580235 10.3428C0.376318 10.4851 0.23409 10.6188 0.15552 10.7409C0.0776473 10.862 0.0650209 10.9666 0.108992 11.0588C0.154603 11.1543 0.263593 11.2424 0.441837 11.3184C0.618911 11.3939 0.857774 11.4548 1.15265 11.5004C1.74217 11.5917 2.54816 11.6211 3.51431 11.5897C5.44612 11.5269 8.01183 11.2212 10.7527 10.6868C13.4936 10.1523 15.8875 9.49231 17.5431 8.85717C18.3714 8.53943 19.0125 8.22881 19.4198 7.94451C19.6237 7.80216 19.7659 7.66848 19.8445 7.54635C19.9223 7.42536 19.935 7.32081 19.8911 7.22869C19.8448 7.13298 19.7352 7.04494 19.5566 6.96894C19.3791 6.89341 19.1399 6.83251 18.8449 6.78685C18.2552 6.69555 17.4493 6.66618 16.4835 6.6976Z" fill="url(#paint0_linear_341_651)"/>
<path fill-rule="evenodd" clip-rule="evenodd" d="M19.5894 6.89184C19.7746 6.97069 19.907 7.06923 19.9665 7.19226L19.9666 7.19246C20.027 7.31907 20.0028 7.45504 19.9149 7.59168C19.8277 7.72723 19.6752 7.86835 19.4677 8.01322C19.0521 8.30336 18.4035 8.61686 17.5731 8.9354C15.9116 9.57282 13.5126 10.234 10.7687 10.769C8.02465 11.3041 5.45437 11.6104 3.51703 11.6734C2.5486 11.7049 1.73673 11.6757 1.13983 11.5832C0.841506 11.537 0.595027 11.4748 0.408967 11.3954C0.224076 11.3166 0.0921376 11.218 0.0333698 11.0948C-0.0270376 10.9682 -0.00284564 10.8323 0.0850537 10.6956C0.172256 10.5601 0.324754 10.4189 0.532274 10.2741C0.947901 9.98393 1.59651 9.67043 2.42685 9.35189C4.08844 8.71447 6.48737 8.05332 9.23131 7.51826C11.9753 6.98319 14.5442 6.67685 16.4808 6.61385C17.4489 6.58236 18.2606 6.61161 18.8578 6.70404C19.1562 6.75025 19.4029 6.8125 19.5894 6.89184ZM16.4835 6.6976C14.5525 6.76042 11.9882 7.06605 9.24734 7.6005C6.50641 8.13497 4.11251 8.79499 2.45686 9.43012C1.62859 9.74787 0.987482 10.0585 0.580235 10.3428C0.376318 10.4851 0.23409 10.6188 0.15552 10.7409C0.0776473 10.862 0.0650209 10.9666 0.108992 11.0588C0.154603 11.1543 0.263593 11.2424 0.441837 11.3184C0.618911 11.3939 0.857774 11.4548 1.15265 11.5004C1.74217 11.5917 2.54816 11.6211 3.51431 11.5897C5.44612 11.5269 8.01183 11.2212 10.7527 10.6868C13.4936 10.1523 15.8875 9.49231 17.5431 8.85717C18.3714 8.53943 19.0125 8.22881 19.4198 7.94451C19.6237 7.80216 19.7659 7.66848 19.8445 7.54635C19.9223 7.42536 19.935 7.32081 19.8911 7.22869C19.8448 7.13298 19.7352 7.04494 19.5566 6.96894C19.3791 6.89341 19.1399 6.83251 18.8449 6.78685C18.2552 6.69555 17.4493 6.66618 16.4835 6.6976Z" fill="url(#paint1_linear_341_651)"/>
<path d="M10.3603 12.2836C8.95335 12.2836 7.72941 11.7803 7.08884 11.031C7.56927 12.3694 8.85613 13.3302 10.3603 13.3302C11.8645 13.3302 13.1456 12.3694 13.6318 11.031C12.9912 11.7803 11.7673 12.2836 10.3603 12.2836Z" fill="#E46E2E"/>
<path d="M10.3374 7.40496C11.7444 7.40496 12.9683 7.90826 13.6089 8.6575C13.1285 7.31917 11.8416 6.35832 10.3374 6.35832C8.83325 6.35832 7.55211 7.31917 7.06596 8.6575C7.70653 7.90826 8.93048 7.40496 10.3374 7.40496Z" fill="#E46E2E"/>
<path d="M7.89527 14.0909C7.59215 14.1023 7.34049 13.8678 7.32334 13.5704C7.3119 13.2673 7.54639 13.0157 7.8438 12.9985C8.14692 12.9871 8.39858 13.2216 8.41574 13.519C8.42717 13.8221 8.19268 14.0795 7.89527 14.0909Z" fill="#767474"/>
<path d="M7.47204 6.97029C7.2833 6.97601 7.12316 6.83302 7.11744 6.64428C7.11172 6.45554 7.2547 6.2954 7.44344 6.28968C7.63218 6.28396 7.79232 6.42695 7.79804 6.61569C7.80376 6.80443 7.66078 6.95885 7.47204 6.97029Z" fill="#767474"/>
<path d="M12.8997 6.56421C12.608 6.57565 12.3621 6.34688 12.3449 6.05519C12.3335 5.7635 12.5623 5.51185 12.854 5.50041C13.1457 5.48897 13.3916 5.71775 13.4087 6.00944C13.4202 6.30112 13.1914 6.55277 12.8997 6.56421Z" fill="#767474"/>
<path d="M12.7281 10.4877H12.9626V9.70415C12.9626 9.65839 12.9626 9.62407 12.9798 9.58976C13.0198 9.46393 13.1456 9.35527 13.2944 9.35527C13.5174 9.35527 13.5918 9.53257 13.5918 9.73846V10.482H13.8263V9.70987C13.8263 9.26376 13.546 9.15509 13.3744 9.15509C13.2886 9.15509 13.2028 9.18368 13.1342 9.22372C13.0599 9.26376 13.0027 9.32095 12.9683 9.38958H12.9626V8.58315H12.7281V10.4877ZM15.2961 9.19512H15.0616V9.99011C15.0616 10.0301 15.0559 10.0759 15.0388 10.1102C14.9987 10.2132 14.8843 10.3218 14.7299 10.3218C14.5183 10.3218 14.4382 10.156 14.4382 9.91004V9.19512H14.2037V9.95008C14.2037 10.4019 14.4497 10.5163 14.6498 10.5163C14.8786 10.5163 15.0159 10.379 15.0788 10.2761H15.0845L15.096 10.4877H15.3019C15.2961 10.3848 15.2904 10.2704 15.2904 10.1331V9.19512H15.2961ZM15.8795 10.4877L15.8909 10.2761H15.8967C15.9939 10.4477 16.1426 10.522 16.3313 10.522C16.623 10.522 16.909 10.2932 16.909 9.82997C16.909 9.43534 16.6859 9.17225 16.3657 9.17225C16.1598 9.17225 16.0053 9.26376 15.9253 9.41246H15.9195V8.60031H15.685V10.1674C15.685 10.2818 15.6793 10.4133 15.6736 10.4991H15.8795V10.4877ZM15.9195 9.73846C15.9195 9.69843 15.9253 9.66983 15.931 9.64123C15.9767 9.46393 16.1312 9.34955 16.2913 9.34955C16.543 9.34955 16.6745 9.5726 16.6745 9.82997C16.6745 10.1274 16.5258 10.3276 16.2799 10.3276C16.1083 10.3276 15.971 10.2132 15.9253 10.053C15.9195 10.0244 15.9138 9.99583 15.9138 9.96724V9.73846H15.9195Z" fill="#999999"/>
<path d="M9.55949 9.17612V8.79864L9.33072 8.86156V9.17612H9.12482V9.35914H9.33072V10.0741C9.33072 10.2285 9.3536 10.3486 9.42223 10.4172C9.47942 10.4859 9.56521 10.5202 9.6796 10.5202C9.77111 10.5202 9.84546 10.503 9.89122 10.4859L9.87978 10.3086C9.85118 10.32 9.80542 10.3257 9.74251 10.3257C9.60525 10.3257 9.55949 10.2285 9.55949 10.0683V9.35914H9.90265V9.17612H9.55949Z" fill="#313940"/>
<path fill-rule="evenodd" clip-rule="evenodd" d="M6.2537 9.17612C6.25942 9.30195 6.26514 9.43921 6.26514 9.60507V11.0235H6.50535V10.3086H6.51107C6.59114 10.4401 6.73985 10.5145 6.91715 10.5145C7.22599 10.5145 7.51768 10.2857 7.51768 9.81097C7.51768 9.41062 7.27747 9.14181 6.95718 9.14181C6.73984 9.14181 6.58542 9.23903 6.48819 9.39918H6.48247L6.47103 9.17612H6.2537ZM6.51107 10.0512C6.50535 10.0226 6.49963 9.98827 6.49963 9.95396H6.49391V9.7309C6.49391 9.70602 6.49993 9.68114 6.50541 9.65843C6.50749 9.64983 6.5095 9.64153 6.51107 9.63367C6.56254 9.45065 6.71125 9.33626 6.87711 9.33626C7.13448 9.33626 7.27175 9.55932 7.27175 9.82241C7.27175 10.1255 7.12304 10.3314 6.87139 10.3314C6.69981 10.3314 6.55682 10.217 6.51107 10.0512Z" fill="#313940"/>
<path d="M4.01171 10.2742C4.01171 10.5888 3.98883 10.6918 3.9202 10.7661C3.863 10.829 3.76577 10.8576 3.65711 10.8691L3.67998 11.0578C3.80581 11.0578 3.98311 11.012 4.09178 10.9091C4.21189 10.789 4.25192 10.6231 4.25192 10.3715V9.17612H4.01171V10.2742Z" fill="#313940"/>
<path d="M5.80759 10.1313C5.80759 10.2685 5.80759 10.3886 5.81903 10.4916H5.60741L5.59597 10.2742H5.59025C5.52734 10.3829 5.39007 10.5202 5.14986 10.5202C4.94396 10.5202 4.69231 10.4058 4.69231 9.94252V9.17612H4.93253V9.90248C4.93253 10.1541 5.00688 10.32 5.22993 10.32C5.39007 10.32 5.50446 10.2113 5.5445 10.1027C5.55594 10.0683 5.56737 10.0226 5.56737 9.98255V9.17612H5.80759V10.1313Z" fill="#313940"/>
<path d="M7.94663 9.17612L8.23832 9.95396C8.26692 10.0397 8.30123 10.1427 8.32411 10.2228H8.32983C8.35271 10.1427 8.3813 10.0455 8.41562 9.94824L8.67871 9.17612H8.93036L8.57004 10.1141C8.39846 10.5659 8.27835 10.7947 8.11821 10.9377C7.99811 11.0406 7.88372 11.0807 7.82081 11.0921L7.75789 10.8919C7.8208 10.8748 7.89516 10.8347 7.96951 10.7775C8.03242 10.7261 8.11821 10.6346 8.16969 10.5087C8.18112 10.4859 8.18684 10.463 8.18684 10.4515C8.18684 10.4401 8.18112 10.4172 8.16969 10.3886L7.67782 9.17612H7.94663Z" fill="#313940"/>
<path fill-rule="evenodd" clip-rule="evenodd" d="M10.3488 9.87961C10.3545 10.2056 10.5604 10.3372 10.8006 10.3372C10.9722 10.3372 11.0751 10.3086 11.1666 10.2685L11.2067 10.4401C11.1209 10.4801 10.9779 10.5202 10.7663 10.5202C10.3602 10.5202 10.1143 10.2514 10.1143 9.85673C10.1143 9.46209 10.3488 9.14753 10.7377 9.14753C11.1724 9.14753 11.2867 9.525 11.2867 9.76522C11.2867 9.7961 11.2847 9.82081 11.283 9.84058C11.2819 9.85375 11.281 9.86474 11.281 9.87389H10.3488V9.87961ZM11.0522 9.70802C11.0522 9.5536 10.9893 9.31911 10.7205 9.31911C10.4746 9.31911 10.3716 9.54216 10.3488 9.70802H11.0522Z" fill="#313940"/>
<path d="M11.6299 9.17612C11.6413 9.30195 11.6413 9.4335 11.6413 9.58792V10.4916H11.8816V9.7881C11.8816 9.74806 11.8873 9.71374 11.893 9.67943C11.9216 9.49641 12.0417 9.37058 12.2133 9.37058C12.2419 9.37058 12.2705 9.37058 12.2933 9.3763V9.15325C12.2705 9.14753 12.2533 9.14753 12.2247 9.14753C12.0646 9.14753 11.9216 9.25619 11.8587 9.4335H11.8472L11.8415 9.17612H11.6299Z" fill="#313940"/>
<defs>
<linearGradient id="paint0_linear_341_651" x1="19.9392" y1="9.96913" x2="0.176463" y2="8.04394" gradientUnits="userSpaceOnUse">
<stop stop-color="#979797"/>
<stop offset="0.2293" stop-color="#F1F1F1"/>
<stop offset="0.5129" stop-color="white"/>
<stop offset="1" stop-color="#979797"/>
</linearGradient>
<linearGradient id="paint1_linear_341_651" x1="19.9392" y1="9.96913" x2="0.176463" y2="8.04394" gradientUnits="userSpaceOnUse">
<stop stop-color="#979797"/>
<stop offset="0.1977" stop-color="#F1F1F1"/>
<stop offset="0.567" stop-color="white"/>
<stop offset="1" stop-color="#979797"/>
</linearGradient>
</defs>
</svg>

<svg xmlns="http://www.w3.org/2000/svg" width="20" height="20" fill="none" viewBox="0 0 20 20">
    <path fill="url(#a)" fill-rule="evenodd" d="M19.59 6.892c.185.079.317.177.377.3.06.127.036.263-.052.4-.087.135-.24.276-.447.421-.416.29-1.064.604-1.895.922-1.661.638-4.06 1.299-6.804 1.834s-5.315.841-7.252.904c-.968.032-1.78.003-2.377-.09a3 3 0 0 1-.731-.188c-.185-.078-.317-.177-.376-.3-.06-.127-.036-.263.052-.4.087-.135.24-.276.447-.42.416-.291 1.065-.605 1.895-.923 1.661-.638 4.06-1.299 6.804-1.834s5.313-.841 7.25-.904c.968-.032 1.78-.002 2.377.09.298.046.545.109.731.188m-3.107-.194c-1.93.062-4.495.368-7.236.902-2.74.535-5.134 1.195-6.79 1.83-.828.318-1.47.629-1.877.913q-.306.214-.424.398-.115.18-.047.318.068.144.333.26.267.113.71.181c.59.092 1.396.121 2.362.09 1.932-.063 4.498-.369 7.239-.903 2.74-.535 5.134-1.195 6.79-1.83.828-.318 1.47-.628 1.877-.912q.306-.215.424-.399.115-.18.047-.317-.068-.145-.334-.26a3 3 0 0 0-.712-.182c-.59-.091-1.396-.12-2.361-.09" clip-rule="evenodd"/>
    <path fill="url(#b)" fill-rule="evenodd" d="M19.59 6.892c.185.079.317.177.377.3.06.127.036.263-.052.4-.087.135-.24.276-.447.421-.416.29-1.064.604-1.895.922-1.661.638-4.06 1.299-6.804 1.834s-5.315.841-7.252.904c-.968.032-1.78.003-2.377-.09a3 3 0 0 1-.731-.188c-.185-.078-.317-.177-.376-.3-.06-.127-.036-.263.052-.4.087-.135.24-.276.447-.42.416-.291 1.065-.605 1.895-.923 1.661-.638 4.06-1.299 6.804-1.834s5.313-.841 7.25-.904c.968-.032 1.78-.002 2.377.09.298.046.545.109.731.188m-3.107-.194c-1.93.062-4.495.368-7.236.902-2.74.535-5.134 1.195-6.79 1.83-.828.318-1.47.629-1.877.913q-.306.214-.424.398-.115.18-.047.318.068.144.333.26.267.113.71.181c.59.092 1.396.121 2.362.09 1.932-.063 4.498-.369 7.239-.903 2.74-.535 5.134-1.195 6.79-1.83.828-.318 1.47-.628 1.877-.912q.306-.215.424-.399.115-.18.047-.317-.068-.145-.334-.26a3 3 0 0 0-.712-.182c-.59-.091-1.396-.12-2.361-.09" clip-rule="evenodd"/>
    <path fill="#e46e2e" d="M10.36 12.284c-1.407 0-2.63-.504-3.271-1.253a3.48 3.48 0 0 0 3.271 2.3 3.49 3.49 0 0 0 3.272-2.3c-.64.75-1.865 1.253-3.272 1.253m-.023-4.879c1.407 0 2.631.503 3.272 1.253a3.48 3.48 0 0 0-3.272-2.3 3.49 3.49 0 0 0-3.271 2.3c.64-.75 1.864-1.253 3.271-1.253"/>
    <path fill="#767474" d="M7.895 14.09a.553.553 0 0 1-.572-.52.553.553 0 0 1 .52-.572.553.553 0 0 1 .573.521.55.55 0 0 1-.52.572M7.472 6.97a.34.34 0 0 1-.355-.326.34.34 0 0 1 .326-.354.34.34 0 0 1 .355.326.343.343 0 0 1-.326.354m5.428-.406a.54.54 0 0 1-.555-.509.535.535 0 0 1 .509-.555.54.54 0 0 1 .555.51.535.535 0 0 1-.51.554"/>
    <path fill="#999" d="M12.728 10.488h.235v-.784c0-.046 0-.08.017-.114a.34.34 0 0 1 .314-.235c.223 0 .298.178.298.383v.744h.234V9.71c0-.446-.28-.555-.452-.555a.5.5 0 0 0-.24.069.4.4 0 0 0-.166.166h-.005v-.807h-.235zm2.568-1.293h-.234v.795c0 .04-.006.086-.023.12a.34.34 0 0 1-.31.212c-.21 0-.29-.166-.29-.412v-.715h-.235v.755c0 .452.246.566.446.566a.5.5 0 0 0 .429-.24h.005l.012.212h.206a6 6 0 0 1-.012-.355v-.938zm.584 1.293.01-.212h.007a.46.46 0 0 0 .434.246c.292 0 .578-.229.578-.692 0-.395-.223-.658-.543-.658-.206 0-.36.092-.44.24h-.007V8.6h-.234v1.567c0 .115-.006.246-.011.332h.206zm.04-.75a.38.38 0 0 1 .372-.389c.251 0 .383.224.383.481 0 .297-.15.498-.395.498a.367.367 0 0 1-.366-.36v-.23z"/>
    <path fill="#313940" d="M9.56 9.176V8.8l-.23.063v.314h-.205v.183h.206v.715c0 .155.023.275.091.343q.086.103.258.103a.6.6 0 0 0 .211-.034l-.011-.177a.4.4 0 0 1-.137.017c-.138 0-.184-.098-.184-.258V9.36h.344v-.183z"/>
    <path fill="#313940" fill-rule="evenodd" d="M6.254 9.176c.005.126.011.263.011.43v1.418h.24v-.715h.006a.46.46 0 0 0 .406.206c.309 0 .6-.23.6-.704 0-.4-.24-.67-.56-.67a.52.52 0 0 0-.469.258h-.006l-.011-.223zm.257.875a.5.5 0 0 1-.011-.097h-.006v-.223q.002-.038.011-.073l.006-.024c.052-.183.2-.298.366-.298.257 0 .395.223.395.486 0 .304-.149.51-.4.51a.37.37 0 0 1-.36-.28" clip-rule="evenodd"/>
    <path fill="#313940" d="M4.012 10.274c0 .315-.023.418-.092.492-.057.063-.154.092-.263.103l.023.189a.64.64 0 0 0 .412-.149c.12-.12.16-.286.16-.538V9.176h-.24zm1.796-.143c0 .137 0 .258.011.36h-.212l-.011-.217H5.59a.49.49 0 0 1-.44.246c-.206 0-.458-.114-.458-.577v-.767h.24v.726c0 .252.075.418.298.418a.337.337 0 0 0 .337-.337v-.807h.24zm2.139-.955.291.778c.029.086.063.189.086.269h.006c.023-.08.051-.178.086-.275l.263-.772h.251l-.36.938c-.172.452-.292.68-.452.824a.66.66 0 0 1-.297.154l-.063-.2a.7.7 0 0 0 .212-.114.7.7 0 0 0 .2-.27.2.2 0 0 0 .017-.056.2.2 0 0 0-.017-.063l-.492-1.213z"/>
    <path fill="#313940" fill-rule="evenodd" d="M10.349 9.88c.005.326.211.457.452.457a.85.85 0 0 0 .366-.069l.04.172a1.05 1.05 0 0 1-.44.08c-.407 0-.653-.269-.653-.663 0-.395.235-.71.624-.71.434 0 .549.378.549.618a1 1 0 0 1-.006.109h-.932zm.703-.172c0-.154-.063-.389-.332-.389-.245 0-.348.223-.371.389z" clip-rule="evenodd"/>
    <path fill="#313940" d="M11.63 9.176c.011.126.011.258.011.412v.904h.24v-.704q.002-.058.012-.109c.029-.183.149-.308.32-.308a.4.4 0 0 1 .08.005v-.223c-.022-.005-.04-.005-.068-.005-.16 0-.303.108-.366.286h-.012l-.005-.258z"/>
    <defs>
        <linearGradient id="a" x1="19.939" x2=".176" y1="9.969" y2="8.044" gradientUnits="userSpaceOnUse">
            <stop stop-color="#979797"/>
            <stop offset=".229" stop-color="#f1f1f1"/>
            <stop offset=".513" stop-color="#fff"/>
            <stop offset="1" stop-color="#979797"/>
        </linearGradient>
        <linearGradient id="b" x1="19.939" x2=".176" y1="9.969" y2="8.044" gradientUnits="userSpaceOnUse">
            <stop stop-color="#979797"/>
            <stop offset=".198" stop-color="#f1f1f1"/>
            <stop offset=".567" stop-color="#fff"/>
            <stop offset="1" stop-color="#979797"/>
        </linearGradient>
    </defs>
</svg>
